X: 588
T: Horses Branle (Brawl)
B: good tune book
B: tunes
M:4/4
L:1/4
Q: 1/4=100
K:G
V:1 
G>A BB | c>B Ac | B>A GF | E2 D2 |
G>A BB | c>B Ac | BG AF | G2 G2 :||
d c/B/  A/B/ c | c B/A/ G/A/ B | AG FG | A2 A2 |
d c/B/  A/B/ c | c B/A/ G/A/ B | AG FA | G2 G2 :||
_B A/G/ _B A/G/ | FG A2 | DE FG | A_B AG |
_B A/G/ _B A/G/ | FG A2 | DE FG | AG G2 :||
% abcbook-tune_id 63dce4361cff777500ab56c0
% abcbook-tune_composer_id 
% abcbook-link-0 https://www.youtube.com/watch?v=8KkPlHOndGw
% abcbook-link-title-0 Horse&#39;s Brawl (Live)
% abcbook-boost 7
% abcbook-difficulty 0
% abcbook-tags good tune book
% abcbook-tablature 
% abcbook-transpose 
% abcbook-tuning 
% abcbook-lastupdated 1675433202431
% abcbook-soundfonts 
% abcbook-repeats 1
% Titles One title
% Transcriptions Only 1 transcription
% Movement Has lots of stepwise movement
% Movement Has some stepwise movement
% Mode major
% Key G
% Time_signature 4/4
% Has_accompaniment_chords No chords

